!!!OTL: 481. Der Gaertner.
!!!COM: J. F. L. Sievers
!!!ODT: 1778
!!!ARE: Europa, Mitteleuropa, Deutschland
!!!SCT: B0481
!!!TXL: @@DE
!!!YEM: Copyright 1995, estate of Helmut Schaffrath.
**kern	**text
*ICvox	*
*Ivox	*
*clefG2	*
*M4/4	*
*met(c)	*
*k[b-]	*
*F:	*
!LO:TX:a:t=Mäßig langſam.	!
{4c	Es
=1	=1
4f	war
4f	ein-
4g	-mal
4g	ein
=2	=2
(<4.a	Gärt-
8b-)	.
4cc}	-ner,
{8ccL	der
8aJ	.
=3	=3
4f	ſang
8fL	ein
8aJ	.
(16aqq	.
4g)	trau-
4g	-rig
=4	=4
2f	Lied.
4r}	.
{8aL	Er
8b-J	.
=5	=5
4cc	thät
4cc	in
4cc	ſei-
8ddL	-nem
8ccJ	.
=6	=6
8ccL	Gar-
8b-J	.
4b-	-ten
4r}	.
{8gL	der
8aJ	.
=7	=7
4b-	Blu-
4b-	-men
4b-	flei-
8b-L	-ßig
8ccJ	.
=8	=8
8b-L	war-
8aJ	.
4a	-ten,
4r}	.
{8ccL	und
8aJ	.
=9	=9
4f	all
4f	ſein
4g	Fleiß
4g	ge-
=10	=10
(4.a	.
8b-)	.
4cc}	-rieth,
{8ccL	und
8aJ	.
=11	=11
4f	all
4f	ſein
(16aqq	.
4g)	Fleiß
4g	ge-
=12	=12
2f	-rieth.
4r}	.
==	==
!!!AGN: Liebes - Lied, Leid, Klage
!!!GTL: Liebeslieder - Liebesleid
!!!ONB: ESAC (Essen Associative Code) Database: BOEHME
!!!AMT: simple quadruple
!!!AIN: vox
!!!EED: Helmut Schaffrath
!!!EEV: 1.0
!!!RDF**kern: < = below
!!Mel. v. Sievers. 1778.
!!@@COMMENT:"Text von Joh. Martin Miller 1775. Das Lied ſteht in ſeinem: "Siegwart, eine Kloſter-
!!geſchichte". 3 Theile. Leipʒig 1776. Melodie von J. Fr. Ludw. Sievers 1778 in Hoffmanns
!!Volksgeſgb. 1848 Nr. 66, auch bei Erk, Germania Nr. 223. Es giebt noch andere ſonſt vom Volke
!!geſungene Weiſen, ʒ. B. bei Erk, Volksl. J. 6, Nr. 17. Kretʒſchmer J. Nr. 190. [...]"
!!@@END:
!!!Text: J. M. Miller
!!!URL-scan: https://archive.org/details/BoehmeVtLieder1895/page/n387/mode/2up
!!!ENC: Anna Maria Matuszewska
!!!EEV: 2024/10/07
*-	*-
